X: 283
T: Guo nian
%%abc-version 2.0
%%abcx-abcm2ps-target-version 5.9.1 (29 Sep 2008)
%%abc-creator hum2abc beta
%%abcx-conversion-date 2013/10/02 07:52:29
%%abc-edited-by Helmut Schaffrath
%%humdrum-veritas 3002372342
%%humdrum-veritas-data 615567821
%%continueall 1
%%barnumbers 0
L: 1/8
M: 2/4
K: Bb
c2c f [I:setbarnb 1]| 
d c B G | 
c2c f | 
d Bc2 | 
d d/ c/ d d/ c/ | 
B c B G | 
B B/ c/ B G | 
f DF2 | 
G> B c d/ c/ | 
B B/ c/ B G | 
F DF2 |]  



